X: 6
T: Teddy O'Neill
O: Rice-Walsh manuscript
R: air
%S: s:2 b:16(8+8)
B: Francis O'Neill: "Waifs and Strays" #6
Z: 2000 Paul Kinder <Ptk12142@aol.com>
M: 6/8
L: 1/8
Q: "Andante"
K: D
% = = = = = = = = = =
F/G/ | [AF]ff f2 e/f/ | gBe dcB | [AF]dd dcd | [fA]ee  e2  ||
F/G/ | [AF]ff f2 e/f/ | gBe dcB | Adf a2g/f/ | e<ac [d3F3] |]
[|     [ec]ee e2 d/e/ | gBe dcB | [AF]dd dcd | [fA]ee  e2  ||
F/G/ | [AF]ff f2 e/f/ | gBe dcB | Adf a2g/f/ | e<ac [d2F2] |]
